X: 1
T: The Fiddler's Chair
M: 4/4
L: 1/8
R: fling
K: Gmaj
B2A>d B<GG2|D>EF>G A>B (3cBA|G<EE>D E2D>E|1 G>BA<F G2G>A:|2 G>BA<F G2B>d||
e>de>f g>a (3gfe|g>a (3gfe d<BB>A|G<EE>D E2D>E|G>BA<F G2B>d|
e>de>f g>a (3gfe|g>a (3gfe d<BB>a|(3bag (3agf (3gfe d2|(3efg a>f g>ed>c||
